fs/closed_caption_off_16_regular.svg

<svg viewBox="0 0 16 16" fill="none" xmlns="http://www.w3.org/2000/svg" height="1em" width="1em">
  <path d="M12.2929 13L14.1464 14.8536C14.3417 15.0488 14.6583 15.0488 14.8536 14.8536C15.0488 14.6583 15.0488 14.3417 14.8536 14.1464L1.85355 1.14645C1.65829 0.951184 1.34171 0.951184 1.14645 1.14645C0.951184 1.34171 0.951184 1.65829 1.14645 1.85355L2.50063 3.20773C1.61734 3.59337 1 4.47458 1 5.49999V10.5C1 11.8807 2.11929 13 3.5 13H12.2929ZM11.2929 12H3.5C2.67157 12 2 11.3284 2 10.5V5.49999C2 4.73751 2.5689 4.10791 3.30539 4.01249L5.0595 5.76661C4.41317 6.15017 4 6.92816 4 8.00003C4 9.13518 4.46341 9.94073 5.17639 10.2972C5.87201 10.645 6.70386 10.5033 7.25355 9.95357C7.44882 9.75831 7.44882 9.44173 7.25355 9.24647C7.05829 9.0512 6.74171 9.0512 6.54645 9.24647C6.29614 9.49677 5.92799 9.55499 5.62361 9.4028C5.33659 9.25929 5 8.86484 5 8.00003C5 7.13521 5.3366 6.74075 5.62361 6.59724C5.68748 6.56531 5.75415 6.54264 5.82195 6.52906L11.2929 12ZM8.45657 6.33522L9.18559 7.06424C9.30781 6.81777 9.47258 6.67276 9.62361 6.59724C9.92799 6.44505 10.2961 6.50326 10.5464 6.75357C10.7417 6.94883 11.0583 6.94884 11.2536 6.75358C11.4488 6.55832 11.4488 6.24173 11.2536 6.04647C10.7039 5.49677 9.87201 5.355 9.17639 5.70282C8.89232 5.84485 8.64788 6.05817 8.45657 6.33522ZM14 10.5C14 10.8833 13.8562 11.2331 13.6196 11.4983L14.3274 12.206C14.7446 11.7593 15 11.1595 15 10.5V5.49999C15 4.11927 13.8807 2.99999 12.5 2.99999H5.12134L6.12134 3.99999H12.5C13.3284 3.99999 14 4.67156 14 5.49999V10.5Z" fill="#212121"/>
</svg>

<svg viewBox="0 0 16 16" fill="none" xmlns="http://www.w3.org/2000/svg" height="1em" width="1em">
  <path d="m12.293 13 1.853 1.854a.5.5 0 0 0 .708-.708l-13-13a.5.5 0 1 0-.708.708l1.355 1.354A2.5 2.5 0 0 0 1 5.5v5A2.5 2.5 0 0 0 3.5 13h8.793Zm-1-1H3.5A1.5 1.5 0 0 1 2 10.5v-5a1.5 1.5 0 0 1 1.305-1.488L5.06 5.767C4.413 6.15 4 6.928 4 8c0 1.135.463 1.94 1.176 2.297a1.795 1.795 0 0 0 2.078-.343.5.5 0 1 0-.708-.708.796.796 0 0 1-.922.157C5.337 9.259 5 8.865 5 8s.337-1.26.624-1.403a.79.79 0 0 1 .198-.068L11.292 12ZM8.457 6.335l.729.73c.122-.247.287-.392.438-.468a.795.795 0 0 1 .922.157.5.5 0 0 0 .708-.708 1.796 1.796 0 0 0-2.078-.343 1.911 1.911 0 0 0-.72.632ZM14 10.5c0 .383-.144.733-.38.998l.707.708A2.491 2.491 0 0 0 15 10.5v-5A2.5 2.5 0 0 0 12.5 3H5.121l1 1H12.5A1.5 1.5 0 0 1 14 5.5v5Z" fill="#212121"/>
</svg>
